X: 15
T:Second Highdance. GS.015
M:9/8
L:1/8
Q:120
S:George Spencer m/s, Leeds,1831
R:Slip Jig
O:England
A:Leeds
N:High Dance - a French English or Scots step or solo dance.  'end
N:Book' is written on the stave after the second double bar, but
N:several tunes have the word 'end' written at the end.  See also note to
N:'The Priest in his Boots'
H:1831
Z:vmp.Cherri Graebe
K:BB major
f2b fdB BAB | GAB cdB AGF | f2b fdB BAB | Gec Afd B3 :||:!
 cAF cAF F=EF| BcB dfd fcA | cAF cAF FGA | Bcd ecA B3 :||
